Origami/16x16/apps/bluetooth-symbolic.svg

<svg width="16" height="16" version="1.1" xmlns="http://www.w3.org/2000/svg">
 <path d="m7.5 0c-3.05 0-5.5 2.68-5.5 6v4c0 3.32 2.45 6 5.5 6s5.5-2.68 5.5-6v-4c0-3.32-2.45-6-5.5-6zm-0.5 2h0.5c0.21 0 0.3485 0.1585 0.5 0.31l3.25 3.22-3 2.47 3 2.47-3.25 3.22c-0.1484 0.148-0.2891 0.31-0.5 0.31h-0.5v-4.94l-2.16 1.78c-0.09 0.09-0.2 0.16-0.34 0.16h-0.5v-0.5c0-0.15 0.08-0.28 0.19-0.37l2.56-2.13-2.56-2.12c-0.11-0.1-0.19-0.23-0.19-0.38v-0.5h0.5c0.12 0 0.23 0.05 0.31 0.13 0.01 0 2.19 1.81 2.19 1.81zm1 1.69v3.25l1.78-1.47zm0 5.37v3.25l1.78-1.78z" style="fill:#5c5c5c"/>
</svg>

<svg xmlns="http://www.w3.org/2000/svg" width="16" height="16" version="1.1">
 <path style="fill:#5c5c5c" d="M 7.5,0 C 4.45,0 2,2.68 2,6 V 10 C 2,13.32 4.45,16 7.5,16 10.55,16 13,13.32 13,10 V 6 C 13,2.68 10.55,0 7.5,0 Z M 7,2 H 7.5 C 7.71,2 7.8485,2.1585 8,2.31 L 11.25,5.53 8.25,8 11.25,10.47 8,13.69 C 7.8516,13.838 7.7109,14 7.5,14 H 7 V 9.06 L 4.84,10.84 C 4.75,10.93 4.64,11 4.5,11 H 4 V 10.5 C 4,10.35 4.08,10.22 4.19,10.13 L 6.75,8 4.19,5.88 C 4.08,5.78 4,5.65 4,5.5 V 5 H 4.5 C 4.62,5 4.73,5.05 4.81,5.13 4.82,5.13 7,6.94 7,6.94 Z M 8,3.69 V 6.94 L 9.78,5.47 Z M 8,9.06 V 12.31 L 9.78,10.53 Z"/>
</svg>
